X:1
T:The Sword of the Lord
T:Philip Paul Bliss, 1875
T:The Sword of the Lord
T:Public Domain
T:Public Domain
T:Public Domain
C:Philip Paul Bliss, 1875
Z:Public Domain
%%score ( 1 2 ) 3
L:1/8
M:4/4
K:Bb
V:1 treble 
V:2 treble 
V:3 bass 
V:1
 DE | FFFF GFFF | F>G FE D2 F>F | GGGG G^FGG | G>A BB A2 A>A | dddd dcBA | cBAG G3 G | F2 F2 d3 c | %8
w: 1.~It was|mid- night in the val- ley, and the|camp was dark and still, Where the|slum- b’ring host of Mid- ian lay a-|long the slop- ing hill, When a|blind- ing flash of torch- es, and a|trum- pet loud and shrill, Threw|out the bat- tle|
w: 2.~Where the|faint and fear- ful thou- sands had re-|turned at God’s com- mand, By the|cho- sen few of faith- ful, vic- t’ry|came to Gid- eon’s band; Hear them|giv- ing God the glo- ry, and a-|round the camp they stand And|shout their bat- tle|
w: 3.~Christ- ian|sol- diers, be not fear- ful; on- ward|with your Cap- tain go; Ev- er|“look- ing un- to Je- sus” you shall|con- quer ev- ’ry foe; He hath|tri- umphed —take your trum- pets, let the|world your vic- t’ry know; Sing|loud your bat- tle|
 B6 z ||"^Refrain" [Fd]2 [Fd]>[Fd] [Fd][Fd][Ec][DB] | [EA]>[EG] [EG][E^F] [EG]3 [EG] | %11
w: cry:|||
w: cry:|Blow ye the trum- pet, for the|Lord hath made us free; Your|
w: cry:|||
 [=Ec]3 [Ec] [Ec]2 [Ed]2 | [Fc]6 F2 | [Fd]2 [Fd]>[Fd] [Fd]2 [Fc][FB] | %14
w: |||
w: blaz- ing lamps raise|high! “The|of the Lord and of Gid-|
w: |||
 [FA]>[EG] [EG][E^F] [EG]3 [EG] | [DF]2 [CF]2 [Fd]3 [Ec] | [DB]6 |] %17
w: |||
w: e- on,” shall be Our con-|qu’ring bat- tle cry.||
w: |||
V:2
 x2 | x8 | x8 | x8 | x8 | x8 | x8 | x8 | x7 || x8 | x8 | x8 | x6 F2 | x8 | x8 | x8 | x6 |] %17
w: |||||||||||||||||
w: ||||||||||||sword|||||
V:3
 B,,2 | B,,4 B,,4 | F,,4 B,,4 | E,4 E,4 | C,4 F,4 | D,4 G,4 | E,4 E,4 | F,4 F,,4 | B,,6 z || %9
 [B,,B,]2 [B,,B,]>[B,,B,] [B,,B,][B,,F,][B,,F,][B,,B,] | %10
 [E,B,]>[E,B,] [E,B,][E,B,] [E,B,]3 [E,B,] | [C,C]3 [C,C] [C,G,]2 [C,B,]2 | %12
 [F,A,]2 [F,A,]2 [F,A,]2 [F,A,]2 | [B,,B,]2 [B,,B,]>[B,,B,] [B,,B,]2 [C,A,][D,B,] | %14
 [E,B,]>[E,B,] [E,B,][E,A,] [E,B,]3 [E,B,] | [F,B,]2 [F,A,]2 [F,A,]3 [F,A,] | [B,,B,]6 |] %17

